X: 2393
T: HORNPIPE
R: Hornpipe.
%R: hornpipe, reel
B: James Kerr "Merry Melodies" v.2 p.44 #393
Z: 2016 John Chambers <jc:trillian.mit.edu>
M: C
L: 1/8
K: Bb
|:\
B2 (3DFB d2c>B | A>cB>G F2^F2 |\
[1 (3GGG G>B e>dc>B | A>f=e>f (3agf (3_edc :|\
[1 (3GAB (3=Bcd e>FG>A | B2d2B2 :|
|: b>a |\
g>dB>d G>Bd>g | ^f>ec>A ^F2e2 |\
(3ded (3cdc (3BcB (3ABA |[1 G>AB>c d2 :|[2 G2z2 [A4E4] |]
